X:5871
T:Scottish de la colle \'a chaux
O:england
C:Trad 1, 68
M:2/4
L:1/16
K:C
ABcd e2ec|defg a4|a2gf e3d|1c2B2 c2A2:|2 c2B2 A4||
|:ABcA B2B2|B2cd e2c2|ABcA B2Bd|1 c2B2 c4:|2 c2B2A4||


